flaticon/productivity-and-development/loupe.svg

<svg xmlns="http://www.w3.org/2000/svg" width="32" height="32" viewBox="0 0 24 24">
    <path d="M 7.390625 2.351562 C 4.609375 2.351562 2.351562 4.609375 2.351562 7.394531 C 2.351562 10.175781 4.609375 12.433594 7.390625 12.433594 C 10.175781 12.433594 12.433594 10.175781 12.433594 7.394531 C 12.433594 4.609375 10.175781 2.351562 7.390625 2.351562 Z M 7.390625 11.414062 C 5.171875 11.414062 3.371094 9.613281 3.371094 7.394531 C 3.371094 5.171875 5.171875 3.371094 7.390625 3.371094 C 9.613281 3.371094 11.414062 5.171875 11.414062 7.394531 C 11.414062 9.613281 9.613281 11.414062 7.390625 11.414062 Z M 7.390625 11.414062"/>
    <path d="M 23.847656 20.457031 L 16.117188 12.730469 C 15.917969 12.53125 15.597656 12.53125 15.394531 12.730469 L 14.421875 13.703125 L 12.96875 12.246094 C 14.097656 10.949219 14.785156 9.25 14.785156 7.394531 C 14.785156 3.308594 11.472656 0 7.390625 0 C 3.308594 0 0 3.308594 0 7.394531 C 0 11.476562 3.308594 14.785156 7.390625 14.785156 C 9.25 14.785156 10.945312 14.101562 12.246094 12.96875 L 13.699219 14.425781 L 12.726562 15.398438 C 12.632812 15.496094 12.449219 15.8125 12.726562 16.121094 L 20.457031 23.851562 C 20.796875 24.132812 21.078125 23.949219 21.179688 23.851562 L 23.847656 21.179688 C 23.941406 21.085938 24.136719 20.777344 23.847656 20.457031 Z M 7.390625 13.765625 C 3.875 13.765625 1.019531 10.910156 1.019531 7.394531 C 1.019531 3.875 3.875 1.019531 7.390625 1.019531 C 10.910156 1.019531 13.761719 3.875 13.761719 7.394531 C 13.761719 10.910156 10.910156 13.765625 7.390625 13.765625 Z M 20.816406 22.765625 L 13.8125 15.757812 L 15.757812 13.8125 L 22.765625 20.820312 Z M 20.816406 22.765625"/>
</svg>

<svg xmlns="http://www.w3.org/2000/svg" width="32" height="32" viewBox="0 0 24 24">
    <path d="M7.39 2.352a5.042 5.042 0 0 0 0 10.082 5.042 5.042 0 1 0 0-10.082zm0 9.062a4.021 4.021 0 1 1 .004-8.042 4.021 4.021 0 0 1-.003 8.042zm0 0"/>
    <path d="M23.848 20.457l-7.73-7.727c-.2-.199-.52-.199-.723 0l-.973.973-1.453-1.457A7.394 7.394 0 0 0 7.39 0 7.391 7.391 0 0 0 0 7.395a7.39 7.39 0 0 0 7.39 7.39c1.86 0 3.555-.683 4.856-1.816l1.453 1.457-.972.972a.522.522 0 0 0 0 .723l7.73 7.73c.34.282.621.098.723 0l2.668-2.671a.509.509 0 0 0 0-.723zM7.39 13.766A6.375 6.375 0 0 1 1.02 7.395 6.376 6.376 0 0 1 7.39 1.02a6.373 6.373 0 0 1 0 12.746zm13.425 9l-7.003-7.008 1.945-1.945 7.008 7.007zm0 0"/>
</svg>
